!! Responding to the Shao", Item 11 from Laurence Picken et al
!! "Music From the Tang Court" Vol. 4, Cambridge University Press
!! (Cambridge) 1987; pp. 29-30
!! NOTE: This file contains an amalgamation of four coordinated ms sources.
!! SGYR	JCYR	SSSTF	KF/HSFRK (manuscripts)
!! Lute	Zither	Mouth	Mouth
!!		Organ	Organ
**kern	**kern	**kern	**kern
*M4/2	*M4/2	*M4/2	*M4/2
=1	=1	=1	=1
8F#	4D 8f#	8ff#	8ff#
8A	8a	8a	8a
{16c#	{4B 16cc#	8b	8b
16B}	16b}	.	.
8A	8a	8a	8a
4D	4d 4dd	4dd	4dd
4d	4dd	4dd	4dd
2d	4d 4dd	4dd	4dd
.	4dd	4dd	4dd
{8F#	{4e 8ff#	8ff#	4ee
8E}	8ee}	8ee	.
8D	4d 8dd	4dd	4dd
8d	8dd	.	.
=2	=2	=2	=2
{8c#	4B 4b	4b	4b
8B}	.	.	.
4B	4b	4b	4b
4E	4e 4ee	4ee	4ee
8E	8ee	4gg	4gg
{32G#	{32gg#	.	.
32F#	32ff#	.	.
16G#}	16gg#}	.	.
{8c#	{4B 8cc#	8ccc	4b
8B}	8b}	8b	.
8AA	4A 8a	4a	4a
8A	8a	.	.
2A	2A 2a	2a	2a
=3	=3	=3	=3
{8G#	4D 4f#	4ff#	4ff#
8F#}	.	.	.
4F#	4f#	4ff#	4ff#
4A	4A 4a	4a	4a
8A	8a	4ff#	4ff#
8F#	8f#	.	.
4E	4D 4e	4ee	4ee
8E	8e	8.ff#	4ff#
{32F#	8f#	.	.
32E	.	.	.
16F#}	.	32ee	.
.	.	32dd	.
4A	4A 4a	4a	4a
4d	4d 8dd	8.dd	4dd
.	8dd	.	.
.	.	32b	.
.	.	32a	.
=4	=4	=4	=4
{8F#	{4e 8ff#	8ff#	4ee
8E}	8ee}	8ee	.
8D	4d 8dd	4dd	4dd
8d	8dd	.	.
4B	4B 4b	4b	4b
{16c#	{16cc#	8ccc	4ccc
16B	16b	.	.
8c#}	8cc#}	8r	.
4D	4d 4dd	2dd	2dd
4d	4dd	.	.
2d	2d 2dd	2dd	2dd
=5	=5	=5	=5
4D	4d 4dd	4dd	4dd
8d	8dd	[8ff#	4ff#
8F#	8ff#	32ff#]	.
.	.	32b	.
.	.	32a	.
.	.	32gg	.
{16G#	{4f# 16gg#	4gg	4gg
16F#	16ff#	.	.
8G#}	8gg#}	.	.
8A	4a 8aa	4a	4a
8A	8aa	.	.
{8c#	{4B 8cc#	8ccc	4b
8B}	8b}	8b	.
8AA	4A 8a	4a	4a
8A	8a	.	.
4F#	4D 4f#	8gg	4ff#
.	.	8ff#	.
{16G#	{16g#	4gg	4gg
16F#	16f#	.	.
8G#}	8g#}	.	.
=6	=6	=6	=6
{8c#	4B 4b	32dd	4b
.	.	[32b	.
.	.	16b]	.
8B}	.	8r	.
8D	4d 8dd	4dd	4dd
8d	8dd	.	.
{8c#	{4B 8cc#	8ccc	4b
8B}	8b}	8b	.
8A	4A 8a	4a	4a
8A	8a	.	.
4D	4d 4dd	4dd	4dd
8A	4A 8a	4a	4a
8A	8a	.	.
2A	2A 2a	4..a	2a
.	.	32ff#	.
.	.	32ee	.
=7	=7	=7	=7
4D	4d 4dd	4dd	4dd
8d	8dd	4ee	4ee
{16F#	8ee	.	.
16E}	.	.	.
4D	4d 4dd	4dd	4dd
8d	8dd	4b	4b
{16c#	8b	.	.
16B}	.	.	.
4D	4d 4dd	8dd	4dd
.	.	8b	.
8d	8dd	4ccc	4ccc
{32c#	{32cc#	.	.
32B	32b	.	.
16c#}	16cc#}	.	.
{8c#	{4B 8cc#	8ccc	4b
8B}	8b}	8b	.
8AA	4A 8a	8.a	4a
8A	8a	.	.
.	.	32b	.
.	.	32a	.
=8	=8	=8	=8
{8G#	4D 4f#	4ff#	4ff#
8F#}	.	.	.
4F#	4f#	4ff#	4ff#
{16G#	4A 4a	4gg#	4gg#
16F#	.	.	.
8G#}	.	.	.
8A	{16a	4a	4a
.	16g#	.	.
8A	8a}	.	.
{8c#	{4B 8cc#	8ccc	4b
8B}	8b}	8b	.
8A	4A 8a	4a	4a
8A	8a	.	.
4B	4B 4b	4b	4b
{16c#	{16cc#	4ccc	4ccc
16B	16b	.	.
8c#}	8cc#}	.	.
=9	=9	=9	=9
{8G#	4D 4f#	4ff#	4ff#
8F#}	.	.	.
4F#	4f#	8.ff#	4ff#
.	.	32ee	.
.	.	32dd	.
4BB	4B 4b	4b	4b
4B	4b	4b	4b
{16c#	{4B 16cc#	4ccc	4ccc
16B	16b	.	.
8c#}	8cc#}	.	.
8c#	{4B 8cc#	4b	4b
{16c#	16cc#	.	.
16B}	16b}	.	.
{16c#	{4B 8cc#	4ccc	4ccc
16B	.	.	.
8c#}	8B}	.	.
8D	4d 8dd	8.dd	4dd
8d	8dd	.	.
.	.	32b	.
.	.	32a	.
=10	=10	=10	=10
{8F#	{4e 8ff#	8ff#	4ee
8E}	8ee}	8ee	.
8D	4d 8dd	4dd	4dd
8d	8dd	.	.
4B	4B 4b	4b	4b
{16c#	{16cc#	8ccc	4ccc
16B	16b	.	.
8c#}	8cc#}	8r	.
4D	2d 2dd	2dd	2dd
4d	.	.	.
2d	4d 4dd	2dd	2dd
.	4dd	.	.
====	====	====	====
*-	*-	*-	*-
